src/images/Pill_Orange_Title-01.svg

<svg width="133" height="133" viewBox="0 0 133 133" fill="none" xmlns="http://www.w3.org/2000/svg">
<g clip-path="url(#clip0)">
<path d="M110.158 58.459C120.323 46.5702 118.926 28.6923 107.037 18.5276C95.148 8.36283 77.2701 9.76043 67.1054 21.6492L22.706 73.5791C12.5412 85.4679 13.9388 103.346 25.8276 113.511C37.7164 123.675 55.5943 122.278 65.759 110.389L110.158 58.459Z" fill="#F8EEC8"/>
<path d="M46.313 46.1565L89.5705 83.0055L65.5313 111.225C60.6448 116.962 53.6797 120.522 46.1683 121.123C38.6568 121.724 31.2143 119.316 25.478 114.43C22.6377 112.01 20.3018 109.055 18.6036 105.733C16.9053 102.41 15.8781 98.786 15.5806 95.0667C14.9797 87.5552 17.3873 80.1127 22.2738 74.3764L46.313 46.1565Z" fill="#F3C74A"/>
<g style="mix-blend-mode:multiply">
<g style="mix-blend-mode:multiply">
<path d="M116.187 34.165C115.708 40.0854 113.373 45.7036 109.515 50.2193L65.1175 102.148C60.223 107.836 53.2764 111.357 45.795 111.94C38.3135 112.523 30.9052 110.122 25.1881 105.262C20.673 101.408 17.4979 96.2201 16.1204 90.446C15.6132 96.4137 17.0132 102.389 20.1189 107.51C23.2246 112.631 27.8756 116.634 33.4021 118.943C38.9285 121.251 45.0451 121.746 50.8709 120.356C56.6966 118.966 61.9308 115.763 65.8195 111.208L110.25 59.3118C113.164 55.8922 115.222 51.828 116.255 47.4553C117.287 43.0826 117.264 38.527 116.187 34.165Z" fill="#F8EEC8"/>
</g>
</g>
</g>
<defs>
<clipPath id="clip0">
<rect width="62.6002" height="125.341" fill="white" transform="translate(88.6289) rotate(45)"/>
</clipPath>
</defs>
</svg>

<svg width="133" height="133" viewBox="0 0 133 133" fill="none" xmlns="http://www.w3.org/2000/svg"><g clip-path="url(#clip0)"><path d="M110.158 58.459c10.165-11.889 8.768-29.767-3.121-39.931C95.148 8.363 77.27 9.76 67.105 21.649L22.706 73.58c-10.165 11.889-8.767 29.767 3.122 39.932 11.888 10.164 29.766 8.767 39.931-3.122l44.399-51.93z" fill="#F8EEC8"/><path d="M46.313 46.157L89.57 83.005l-24.039 28.219a28.41 28.41 0 0 1-49.95-16.158 28.412 28.412 0 0 1 6.693-20.69l24.039-28.22z" fill="#F3C74A"/><path d="M116.187 34.165a28.219 28.219 0 0 1-6.672 16.054l-44.397 51.929a28.404 28.404 0 0 1-39.93 3.114 28.032 28.032 0 0 1-9.068-14.816 28.288 28.288 0 0 0 49.7 20.762l44.43-51.896a28.317 28.317 0 0 0 5.937-25.147z" fill="#F8EEC8"/></g><defs><clipPath id="clip0"><path fill="#fff" transform="rotate(45 44.314 106.985)" d="M0 0h62.6v125.341H0z"/></clipPath></defs></svg>
